X: 2
T: The Otter's Holt
R: reel
M: 4/4
L: 1/8
K: Bmin
e|:fBBA FEFB|A3F ABde|fBBA FEFA|BdcA B2 de|
fBBA FEFB|A3F ABde|fbaf efde|1 fBBA B3e:|2 fBBA B3c||
|:d2 fdAd f2|a3f edBc|d2 fdAd f2|a3f egfe|
d2 fdAd f2|a3f efde|fBBA FEFA|1 BdcA B3c:|2 BdcA B3e||


Tune 636	Setting 24530

